src/standard/hardware/monitor-blank.svg

<svg xmlns="http://www.w3.org/2000/svg" viewBox="0 0 36 36">
  <path d="M31 6.38H5a.62.62 0 0 0-.62.62v17a.62.62 0 0 0 .62.62h10.38v3.76H9a.62.62 0 1 0 0 1.24h18a.62.62 0 0 0 0-1.24h-6.38v-3.76H31a.62.62 0 0 0 .62-.62V7a.62.62 0 0 0-.62-.62Zm-11.62 22h-2.76v-3.76h2.76Zm11-5H5.62V7.62h24.76Z"/>
</svg>

<svg id="f04704c1-be5e-4d7c-bcba-05620553b3ba" data-name="Icon" xmlns="http://www.w3.org/2000/svg" viewBox="0 0 36 36">
  <path d="M31,6.38H5A.62.62,0,0,0,4.38,7V24a.62.62,0,0,0,.62.62H15.38v3.76H9a.62.62,0,1,0,0,1.24H27a.62.62,0,0,0,0-1.24H20.62V24.62H31a.62.62,0,0,0,.62-.62V7A.62.62,0,0,0,31,6.38Zm-11.62,22H16.62V24.62h2.76Zm11-5H5.62V7.62H30.38Z"/>
</svg>
